!!!SOCIAL_FUNCTION:	arapaho war song
!!!PDT:	1936
!!!OTL: No_19_Song_of_War_Dance.krn
!!!REG: Oklahoma and Montana
!!!LANG: Tone
!!!LING_GROUP: Algonquin
**kern	**kern
*staff2	*staff1
=1-	=1-
*clefF4	*clefF4
*k[b-]	*k[b-]
*M2/4	*M2/4
8GG/L	4f\
8GG/J	.
8GG/L	16c\LK
.	8.c\J
8GG/J	.
=2!|:	=2!|:
2r	4f\
.	4f\
=3	=3
2r	4e-\
.	16f\LK
.	8.c\J
=4	=4
2r	16A\LK
.	8.A\J
.	4A\
=5	=5
2r	4A\
.	4G\
=6	=6
2r	16F\LK
.	8.F\J
.	4F\
=7	=7
2r	8F\
.	8r
.	4A\
=8	=8
*M3/4	*M3/4
2.r	16G\LK
.	8.G\J
.	4G\
.	4G\
=9	=9
*M2/4	*M2/4
2r	4F\
.	4G\
=10	=10
*M3/4	*M3/4
2.r	12A\L
.	12G\
.	12F\J
.	4F\
.	8F\L
.	8F\J
=11	=11
2.r	2F\
.	16F\LL
.	16F\JJ
.	8r
=12	=12
*M2/4	*M2/4
2r	4g\
.	16f\LK
.	8.f\J
==:|!	==:|!
*-	*-
